X:1
T:Title
%%score { ( 1 4 5 ) | ( 2 3 ) }
L:1/8
M:4/4
K:G
V:1 treble nm="Grand Piano"
V:4 treble 
V:5 treble 
V:2 bass 
V:3 bass 
V:1
 z4 z2[Q:1/4=100] [B,B]2 | [B,D]2 [B,E]2 [B,DF]2 [G,B,G]2 | [CA]3 [CB] [A,CA]2 [Ec]2 | %3
 E2 F2 G2 A2 |[M:3/4] D6 |[M:1/4] B2 |[M:4/4] B4 z4 | B4 z4 | [Fd]2 [DA]2 [^CG]2 [CE]2 | %9
[M:3/4] D6 |[M:1/4] D2 |[M:4/4] A3 A G2 A2 | B3 G G2 A2 | B2 [GB]2 [Gc]2 [Gd]2 |[M:3/4] [Ge]6 | %15
[M:1/4] [Ge]2 |[M:4/4] [Ge]2 [^CGA]2 [DFA]2 [Fd]2 | d4 z4 | [DGB]2 .[CEA]2 [B,DG]2 [CDF]2 | %19
[M:3/4] [B,DG]6 |] %20
V:2
 z4 z2 [G,,D,]2 | [G,,G,]2 [G,,D,]2 G,,2 G,,2 | E,2 E,2 z4 | [D,G,]2 [D,F,D]2 [D,E,D]2 [D,F,C]2 | %4
[M:3/4] C2 z2 z2 |[M:1/4] [G,B,D]2 |[M:4/4] [F,A,^D]2 [E,G,]2 [^D,F,]2 [E,G,E]2 | %7
 [F,A,^D]2 [^D,A,]2 [E,G,]2 [E,B,]2 | [A,,A,]2 [A,,F,]2 [A,,E,]2 [A,,G,]2 |[M:3/4] [D,F,]6 | %10
[M:1/4] D,2 |[M:4/4] [F,CD]3 [F,CD] [E,CD]2 [F,CD]2 | [G,B,D]3 [B,D] [B,D]2 [A,CF]2 | %13
 [G,B,G]2[K:bass] [=F,D]2 [E,C]2 [D,B,]2 |[M:3/4] [C,C]6 |[M:1/4] [C,_B,]2 | %16
[M:4/4] [^C,A,]2 A,,2 D,2 [D,C]2 | G,,2 z G C,2 A,,2 | B,,2 z E D,2 D,2 |[M:3/4] G,,6 |] %20
V:3
 x8 | x8 | G,,3 G,, G,,2 [G,,E,]2 | x8 |[M:3/4] G,6 |[M:1/4] x2 |[M:4/4] x8 | x8 | x8 |[M:3/4] x6 | %10
[M:1/4] x2 |[M:4/4] x8 | x8 | x2[K:bass] x6 |[M:3/4] x6 |[M:1/4] x2 |[M:4/4] x8 | z2 B,,2 z4 | %18
 z2 C,2 z4 |[M:3/4] x6 |] %20
V:4
 x8 | x8 | x8 | x8 |[M:3/4] z2 A,2 B,2 |[M:1/4] x2 |[M:4/4] z2 z c [FB]2 B2 | z2 z c [GB]2 [Gd]2 | %8
 x8 |[M:3/4] x6 |[M:1/4] x2 |[M:4/4] x8 | x8 | x8 |[M:3/4] x6 |[M:1/4] x2 |[M:4/4] x8 | %17
 [B,G]2 [D=F]2 [CEG]2 [C^Fc]2 | x8 |[M:3/4] x6 |] %20
V:5
 x8 | x8 | x8 | x8 |[M:3/4] x6 |[M:1/4] x2 |[M:4/4] z2 E2 z4 | z2 F2 z4 | x8 |[M:3/4] x6 | %10
[M:1/4] x2 |[M:4/4] x8 | x8 | x8 |[M:3/4] x6 |[M:1/4] x2 |[M:4/4] x8 | x8 | x8 |[M:3/4] x6 |] %20

